mobile/apps/auth/assets/custom-icons/icons/autenti.svg

<svg xmlns="http://www.w3.org/2000/svg" viewBox="0 0 300 300"><path fill="#2c343c" fill-rule="evenodd" d="M82.25 148.92C45.262 219.273 15 277.097 15 277.418c0 .32 10.26.582 22.801.582h22.8l44.45-84.967c24.447-46.732 44.742-84.982 45.101-85 .358-.018 6.264 10.655 13.124 23.717 6.86 13.063 16.966 32.3 22.458 42.75 5.492 10.45 19.836 38 31.876 61.222l21.89 42.222 22.75.028c12.512.015 22.75-.239 22.75-.566C285 276.267 150.702 21 150.103 21.003c-.331.001-30.866 57.564-67.853 127.917"/><path fill="#1c73e3" fill-rule="evenodd" d="M162.162 178.503 149.824 202h-19.412c-12.058 0-19.412.373-19.412.984 0 1.482 38.314 74.016 39.097 74.016.373 0 10.02-17.887 21.437-39.75 11.418-21.863 21.428-40.925 22.246-42.361 1.433-2.516 1.13-3.289-8.327-21.25-5.398-10.251-10.07-18.638-10.384-18.636-.313.001-6.121 10.576-12.907 23.5"/></svg>

<svg xmlns="http://www.w3.org/2000/svg" width="300" height="300" viewBox="0 0 300 300" version="1.1"><path d="M 82.250 148.920 C 45.262 219.273, 15 277.097, 15 277.418 C 15 277.738, 25.260 278, 37.801 278 L 60.601 278 105.051 193.033 C 129.498 146.301, 149.793 108.051, 150.152 108.033 C 150.510 108.015, 156.416 118.688, 163.276 131.750 C 170.136 144.813, 180.242 164.050, 185.734 174.500 C 191.226 184.950, 205.570 212.500, 217.610 235.722 L 239.500 277.944 262.250 277.972 C 274.762 277.987, 285 277.733, 285 277.406 C 285 276.267, 150.702 21, 150.103 21.003 C 149.772 21.004, 119.237 78.567, 82.250 148.920" stroke="none" fill="#2c343c" fill-rule="evenodd"/><path d="M 162.162 178.503 L 149.824 202 130.412 202 C 118.354 202, 111 202.373, 111 202.984 C 111 204.466, 149.314 277, 150.097 277 C 150.470 277, 160.117 259.113, 171.534 237.250 C 182.952 215.387, 192.962 196.325, 193.780 194.889 C 195.213 192.373, 194.910 191.600, 185.453 173.639 C 180.055 163.388, 175.383 155.001, 175.069 155.003 C 174.756 155.004, 168.948 165.579, 162.162 178.503" stroke="none" fill="#1c73e3" fill-rule="evenodd"/></svg>
